build/img/icon-arrow-up.svg

<svg width="18" height="12" viewBox="0 0 18 12" fill="none" xmlns="http://www.w3.org/2000/svg">
<path d="M8.29764 0.999386L0.287559 9.00962C0.102145 9.19488 -8.06437e-08 9.4422 -6.91167e-08 9.7059C-5.75898e-08 9.96961 0.102145 10.2169 0.287559 10.4022L0.87731 10.9921C1.2616 11.3759 1.88618 11.3759 2.26988 10.9921L8.99627 4.2657L15.7301 10.9996C15.9155 11.1848 16.1627 11.2871 16.4263 11.2871C16.6901 11.2871 16.9373 11.1848 17.1228 10.9995L17.7124 10.4097C17.8979 10.2242 18 9.97707 18 9.71337C18 9.44966 17.8979 9.20234 17.7124 9.01708L9.69504 0.999386C9.50904 0.813681 9.26071 0.711682 8.99671 0.712267C8.73169 0.711682 8.48349 0.813681 8.29764 0.999386Z" fill="white"/>
</svg>

<svg width="18" height="12" fill="none" xmlns="http://www.w3.org/2000/svg"><path d="M8.298 1L.288 9.01A.977.977 0 000 9.706c0 .264.102.51.288.696l.59.59a.986.986 0 001.392 0l6.726-6.726L15.73 11a.978.978 0 00.696.287.979.979 0 00.697-.288l.59-.59A.978.978 0 0018 9.714a.977.977 0 00-.288-.696L9.695 1a.979.979 0 00-.698-.287.979.979 0 00-.7.287z" fill="#fff"/></svg>
